epam-assets/icon-sources/18/navigation-menu.svg

<svg xmlns="http://www.w3.org/2000/svg" width="18" height="18" fill="none" viewBox="0 0 18 18">
  <path fill="#6C6F80" fill-rule="evenodd" d="M2.25 4.5h13.5V6H2.25V4.5Zm0 3.75h13.5v1.5H2.25v-1.5Zm0 3.75h13.5v1.5H2.25V12Z" clip-rule="evenodd"/>
</svg>

<svg width="18" height="18" viewBox="0 0 18 18" fill="none" xmlns="http://www.w3.org/2000/svg">
<g id="18/navigation-menu">
<path id="icon" fill-rule="evenodd" clip-rule="evenodd" d="M2.25 4.5H15.75V6H2.25V4.5ZM2.25 8.25H15.75V9.75H2.25V8.25ZM2.25 12H15.75V13.5H2.25V12Z" fill="#6C6F80"/>
</g>
</svg>
